public/primaries/Business.svg

<svg id="Layer_1" data-name="Layer 1" xmlns="http://www.w3.org/2000/svg" width="64" height="64" viewBox="0 0 64 64"><defs><style>.cls-1{fill-rule:evenodd}</style></defs><title>Icons 100</title><path class="cls-1" d="M54 24v2a2 2 0 0 1 2 2v24a2 2 0 0 1-2 2h-8a2 2 0 0 1-2-2V28a2 2 0 0 1 2-2v-2a2 2 0 0 1 2-2l1.426-9.506a.58.58 0 0 1 1.148 0L52 22a2 2 0 0 1 2 2zm-6 25a1 1 0 0 0 1 1h2a1 1 0 0 0 1-1v-2a1 1 0 0 0-1-1h-2a1 1 0 0 0-1 1v2zm0-8a1 1 0 0 0 1 1h2a1 1 0 0 0 1-1v-2a1 1 0 0 0-1-1h-2a1 1 0 0 0-1 1v2zm3-11h-2a1 1 0 0 0-1 1v2a1 1 0 0 0 1 1h2a1 1 0 0 0 1-1v-2a1 1 0 0 0-1-1zM8 52V20a2 2 0 0 1 2-2h8a2 2 0 0 1 2 2v32a2 2 0 0 1-2 2h-8a2 2 0 0 1-2-2zm4-3a1 1 0 0 0 1 1h2a1 1 0 0 0 1-1v-2a1 1 0 0 0-1-1h-2a1 1 0 0 0-1 1v2zm0-8a1 1 0 0 0 1 1h2a1 1 0 0 0 1-1v-2a1 1 0 0 0-1-1h-2a1 1 0 0 0-1 1v2zm0-8a1 1 0 0 0 1 1h2a1 1 0 0 0 1-1v-2a1 1 0 0 0-1-1h-2a1 1 0 0 0-1 1v2zm0-8a1 1 0 0 0 1 1h2a1 1 0 0 0 1-1v-2a1 1 0 0 0-1-1h-2a1 1 0 0 0-1 1v2zm28 29H24a2 2 0 0 1-2-2V12a2 2 0 0 1 2-2h16a2 2 0 0 1 2 2v40a2 2 0 0 1-2 2zM30 15a1 1 0 0 0-1-1h-2a1 1 0 0 0-1 1v2a1 1 0 0 0 1 1h2a1 1 0 0 0 1-1v-2zm0 8a1 1 0 0 0-1-1h-2a1 1 0 0 0-1 1v2a1 1 0 0 0 1 1h2a1 1 0 0 0 1-1v-2zm0 8a1 1 0 0 0-1-1h-2a1 1 0 0 0-1 1v2a1 1 0 0 0 1 1h2a1 1 0 0 0 1-1v-2zm0 8a1 1 0 0 0-1-1h-2a1 1 0 0 0-1 1v2a1 1 0 0 0 1 1h2a1 1 0 0 0 1-1v-2zm0 8a1 1 0 0 0-1-1h-2a1 1 0 0 0-1 1v2a1 1 0 0 0 1 1h2a1 1 0 0 0 1-1v-2zm8-32a1 1 0 0 0-1-1h-2a1 1 0 0 0-1 1v2a1 1 0 0 0 1 1h2a1 1 0 0 0 1-1v-2zm0 8a1 1 0 0 0-1-1h-2a1 1 0 0 0-1 1v2a1 1 0 0 0 1 1h2a1 1 0 0 0 1-1v-2zm0 8a1 1 0 0 0-1-1h-2a1 1 0 0 0-1 1v2a1 1 0 0 0 1 1h2a1 1 0 0 0 1-1v-2zm0 8a1 1 0 0 0-1-1h-2a1 1 0 0 0-1 1v2a1 1 0 0 0 1 1h2a1 1 0 0 0 1-1v-2zm0 8a1 1 0 0 0-1-1h-2a1 1 0 0 0-1 1v2a1 1 0 0 0 1 1h2a1 1 0 0 0 1-1v-2z"/></svg>

<svg id="Layer_1" data-name="Layer 1" xmlns="http://www.w3.org/2000/svg" width="64" height="64" viewBox="0 0 64 64">
  <defs>
    <style>
      .cls-1 {
        fill-rule: evenodd;
      }
    </style>
  </defs>
  <title>Icons 100</title>
  <path class="cls-1" d="M54,24v2a2,2,0,0,1,2,2V52a2,2,0,0,1-2,2H46a2,2,0,0,1-2-2V28a2,2,0,0,1,2-2V24a2,2,0,0,1,2-2l1.4257-9.5056a0.5806,0.5806,0,0,1,1.1483,0L52,22A2,2,0,0,1,54,24ZM48,49a1,1,0,0,0,1,1h2a1,1,0,0,0,1-1V47a1,1,0,0,0-1-1H49a1,1,0,0,0-1,1v2Zm0-8a1,1,0,0,0,1,1h2a1,1,0,0,0,1-1V39a1,1,0,0,0-1-1H49a1,1,0,0,0-1,1v2Zm3-11H49a1,1,0,0,0-1,1v2a1,1,0,0,0,1,1h2a1,1,0,0,0,1-1V31A1,1,0,0,0,51,30ZM8,52V20a2,2,0,0,1,2-2h8a2,2,0,0,1,2,2V52a2,2,0,0,1-2,2H10A2,2,0,0,1,8,52Zm4-3a1,1,0,0,0,1,1h2a1,1,0,0,0,1-1V47a1,1,0,0,0-1-1H13a1,1,0,0,0-1,1v2Zm0-8a1,1,0,0,0,1,1h2a1,1,0,0,0,1-1V39a1,1,0,0,0-1-1H13a1,1,0,0,0-1,1v2Zm0-8a1,1,0,0,0,1,1h2a1,1,0,0,0,1-1V31a1,1,0,0,0-1-1H13a1,1,0,0,0-1,1v2Zm0-8a1,1,0,0,0,1,1h2a1,1,0,0,0,1-1V23a1,1,0,0,0-1-1H13a1,1,0,0,0-1,1v2ZM40,54H24a2,2,0,0,1-2-2V12a2,2,0,0,1,2-2H40a2,2,0,0,1,2,2V52A2,2,0,0,1,40,54ZM30,15a1,1,0,0,0-1-1H27a1,1,0,0,0-1,1v2a1,1,0,0,0,1,1h2a1,1,0,0,0,1-1V15Zm0,8a1,1,0,0,0-1-1H27a1,1,0,0,0-1,1v2a1,1,0,0,0,1,1h2a1,1,0,0,0,1-1V23Zm0,8a1,1,0,0,0-1-1H27a1,1,0,0,0-1,1v2a1,1,0,0,0,1,1h2a1,1,0,0,0,1-1V31Zm0,8a1,1,0,0,0-1-1H27a1,1,0,0,0-1,1v2a1,1,0,0,0,1,1h2a1,1,0,0,0,1-1V39Zm0,8a1,1,0,0,0-1-1H27a1,1,0,0,0-1,1v2a1,1,0,0,0,1,1h2a1,1,0,0,0,1-1V47Zm8-32a1,1,0,0,0-1-1H35a1,1,0,0,0-1,1v2a1,1,0,0,0,1,1h2a1,1,0,0,0,1-1V15Zm0,8a1,1,0,0,0-1-1H35a1,1,0,0,0-1,1v2a1,1,0,0,0,1,1h2a1,1,0,0,0,1-1V23Zm0,8a1,1,0,0,0-1-1H35a1,1,0,0,0-1,1v2a1,1,0,0,0,1,1h2a1,1,0,0,0,1-1V31Zm0,8a1,1,0,0,0-1-1H35a1,1,0,0,0-1,1v2a1,1,0,0,0,1,1h2a1,1,0,0,0,1-1V39Zm0,8a1,1,0,0,0-1-1H35a1,1,0,0,0-1,1v2a1,1,0,0,0,1,1h2a1,1,0,0,0,1-1V47Z"/>
</svg>
